vivaldi-source/chromium/chrome/browser/resources/welcome/onboarding_welcome/images/background_svgs/red_triangle.svg

<svg xmlns="http://www.w3.org/2000/svg" width="65" height="74" viewBox="0 0 65 74">
  <path fill="#E94235" fill-rule="evenodd" d="M64.5429228,7.29310524 L64.3644898,67.9344347 C64.1624511,71.340818 61.2707769,73.9365373 57.9057548,73.732136 C56.9598601,73.6746796 56.0401784,73.3950765 55.2195428,72.9154694 L3.60676683,42.7512281 C0.687353928,41.0450251 -0.312855086,37.266089 1.37273747,34.3107382 C1.84655098,33.4800006 2.50492275,32.7723367 3.29571384,32.2437891 L55.0869229,1.76670102 C57.9001639,-0.113607947 61.6864522,0.670655917 63.5438345,3.51840338 C64.2715067,4.63407375 64.6220761,5.95857646 64.5429228,7.29310524 Z"/>
</svg>

<svg xmlns="http://www.w3.org/2000/svg" width="65" height="74"><path fill-rule="evenodd" d="M64.543 7.293l-.179 60.641c-.202 3.407-3.093 6.003-6.458 5.798a6.05 6.05 0 0 1-2.686-.817L3.607 42.751c-2.92-1.706-3.92-5.485-2.234-8.44a6.149 6.149 0 0 1 1.923-2.067l51.79-30.477c2.814-1.88 6.6-1.096 8.458 1.751a6.236 6.236 0 0 1 .999 3.775z"/></svg>
